icon/pk/file-pdf.svg

<svg viewBox="0 0 48 48" fill="none" xmlns="http://www.w3.org/2000/svg" height="1em" width="1em">
  <path d="M10 4H30L40 14V42C40 43.1046 39.1046 44 38 44H10C8.89543 44 8 43.1046 8 42V6C8 4.89543 8.89543 4 10 4Z" fill="#2F88FF" stroke="black" stroke-width="4" stroke-linejoin="round"/>
  <path fill-rule="evenodd" clip-rule="evenodd" d="M18 18H30V25.9917L18.0083 26L18 18Z" stroke="white" stroke-width="4" stroke-linecap="round" stroke-linejoin="round"/>
  <path d="M18 18V34" stroke="white" stroke-width="4" stroke-linecap="round"/>
</svg>

<svg width="48" height="48" fill="none" xmlns="http://www.w3.org/2000/svg"><path d="M10 4h20l10 10v28a2 2 0 0 1-2 2H10a2 2 0 0 1-2-2V6a2 2 0 0 1 2-2Z" fill="#2F88FF" stroke="#000" stroke-width="4" stroke-linejoin="round"/><path clip-rule="evenodd" d="M18 18h12v7.992L18.008 26 18 18Z" stroke="#fff" stroke-width="4" stroke-linecap="round" stroke-linejoin="round"/><path d="M18 18v16" stroke="#fff" stroke-width="4" stroke-linecap="round"/></svg>
